plugins/nintendo-ds/src/icons/view-bottom-screen-symbolic.svg

<?xml version="1.0" encoding="UTF-8" standalone="no"?>
<svg
   xmlns:dc="http://purl.org/dc/elements/1.1/"
   xmlns:cc="http://creativecommons.org/ns#"
   xmlns:rdf="http://www.w3.org/1999/02/22-rdf-syntax-ns#"
   xmlns:svg="http://www.w3.org/2000/svg"
   xmlns="http://www.w3.org/2000/svg"
   xmlns:sodipodi="http://sodipodi.sourceforge.net/DTD/sodipodi-0.dtd"
   xmlns:inkscape="http://www.inkscape.org/namespaces/inkscape"
   width="16"
   height="16"
   version="1.1"
   id="svg8"
   sodipodi:docname="6-bottom.svg"
   inkscape:version="0.92.4 5da689c313, 2019-01-14">
  <metadata
     id="metadata14">
    <rdf:RDF>
      <cc:Work
         rdf:about="">
        <dc:format>image/svg+xml</dc:format>
        <dc:type
           rdf:resource="http://purl.org/dc/dcmitype/StillImage" />
        <dc:title></dc:title>
      </cc:Work>
    </rdf:RDF>
  </metadata>
  <defs
     id="defs12" />
  <sodipodi:namedview
     pagecolor="#ffffff"
     bordercolor="#666666"
     borderopacity="1"
     objecttolerance="10"
     gridtolerance="10"
     guidetolerance="10"
     inkscape:pageopacity="0"
     inkscape:pageshadow="2"
     inkscape:window-width="1920"
     inkscape:window-height="1016"
     id="namedview10"
     showgrid="true"
     inkscape:zoom="32"
     inkscape:cx="1.5549575"
     inkscape:cy="8.7612104"
     inkscape:window-x="0"
     inkscape:window-y="27"
     inkscape:window-maximized="1"
     inkscape:current-layer="svg8">
    <inkscape:grid
       type="xygrid"
       id="grid4526" />
  </sodipodi:namedview>
  <path
     sodipodi:nodetypes="sccssccssscscccscscccs"
     inkscape:connector-curvature="0"
     id="path858"
     d="m 9,1 c 0.942809,0 1.999979,1.057191 2,2 v 6 c 2.1e-5,0.942809 -1.057191,2 -2,2 H 3 C 2.057191,11 1.000021,9.942809 1,9 V 3 C 0.999979,2.057191 2.057191,1 3,1 Z M 4,4 H 3 V 5 C 3,5.31 3.09025,5.552 3.28125,5.75 L 6,8.4082031 8.71875,5.751953 C 8.90875,5.553953 9,5.311953 9,5.001953 v -1 H 8 c -0.257,0 -0.52775,0.1295 -0.71875,0.3125 L 6,5.59375 4.71875,4.314453 C 4.52875,4.131453 4.257,4 4,4 Z"
     style="fill:#474747;fill-opacity:1;stroke:none;stroke-width:1px;stroke-linecap:butt;stroke-linejoin:miter;stroke-opacity:1" />
  <path
     inkscape:connector-curvature="0"
     id="path818"
     d="M 7,15 C 6.057191,15 5.000021,13.942809 5,13 v -1 h 2 v 1 h 6 V 7 H 12 V 5 h 1 c 0.942809,0 1.999979,1.057191 2,2 v 6 c 2.1e-5,0.942809 -1.057191,2 -2,2 z"
     style="opacity:0.5;fill:#474747;fill-opacity:1;stroke:none;stroke-width:1px;stroke-linecap:butt;stroke-linejoin:miter;stroke-opacity:1"
     sodipodi:nodetypes="sccccccccsccss" />
</svg>

<svg width="16" height="16" version="1.1" xmlns="http://www.w3.org/2000/svg">
  <path d="m9 1c0.94281 0 2 1.0572 2 2v6c2.1e-5 0.94281-1.0572 2-2 2h-6c-0.94281 0-2-1.0572-2-2v-6c-2.1e-5 -0.94281 1.0572-2 2-2zm-5 3h-1v1c0 0.31 0.09025 0.552 0.28125 0.75l2.7188 2.6582 2.7188-2.6563c0.19-0.198 0.28125-0.44 0.28125-0.75v-1h-1c-0.257 0-0.52775 0.1295-0.71875 0.3125l-1.2812 1.2793-1.2812-1.2793c-0.19-0.183-0.46175-0.31445-0.71875-0.31445z" fill="#474747"/>
  <path d="m7 15c-0.94281 0-2-1.0572-2-2v-1h2v1h6v-6h-1v-2h1c0.94281 0 2 1.0572 2 2v6c2.1e-5 0.94281-1.0572 2-2 2z" fill="#474747" opacity=".5"/>
</svg>
